X:006
T:Moll in the Wad TS.006
M:6/8
L:1/8
Q:3/8=120
S:Thomas Sands’ MS,1810,Lincolnshire
R:jig
N:Additional bar at bar 13 to complete tune
O:England;Lincolnshire
Z:vmp.Ruairidh Greig, 2011
K:Dmix
d|BAB G2F|E2FG2A|BABc2B|AFDD2d|
BAB G2F|E2FG2A|BABc2B|AFDD2:|
|:c|BABd2d|BAB d2d|BAB de=f|ecAA2c|
“_bar added”BABd2d|BAB def|gfe dcB|AFDD2:|]

